!!!OTL: ICH HABE MEIN FEINSLIEBCHEN
!!!ARE: Europa, Mitteleuropa, Deutschland, Schlesien
!!!SCT: E0536A
!!!YEM: Copyright 1995, estate of Helmut Schaffrath.
**kern
*ICvox
*Ivox
*M3/4
*k[b-]
*F:
{8f
=1
8cc
8cc
4a
4f
=2
8cc
8b-
4g
8r}
{8g
=3
8b-
8b-
4g
4dd
=4
8cc
8a
4f
8r}
{8c
=5
8f
8f
4a
4cc
=6
2ff}
{4dd
=7
8cc
8a
8cc
8b-
4g
=8
2f
8r}
==
!!!AGN: Liebes - Lied
!!!ONB: ESAC (Essen Associative Code) Database: ERK1
!!!AMT: simple triple
!!!AIN: vox
!!!EED: Helmut Schaffrath
!!!EEV: 1.0
*-
